X:322
T:Reel 322
M:4/4
K:Gmaj
L:1/8
e|d2Bd eaaf|dedB ABGB|d2Bd efgb|afdf gedB|d2Bd edef|geed eAAc|D2Bd gedg|bd'af g2g|f|gdBd gc'bg|fded adaf|gdBd gc'ba|gedc BGG2|gabg gbag|fdad c'dbd|gbd'b e'c'd'c'|bd'ac' bgg|
